X:1
T:Tifty's Annie
M:3/4
L:1/8
K:F
 G2| B3/2 c/2 d2 dd| c3/2 A/2 G2 DD| F3/2 G/2 A2 A2| G3/2- E/2 D2 D2|\
 G3/2 E/2 D2 C2| D3/2 E/2 G2G-A|B-e d2e-d| cA G2||
